X:1
T:Little House Under the Hill
M:C
L:1/8
Q:80
C:Arr. by T. Tully
S:Reel
K:HP
[| {g}ec{gcecG}c2{g}Ac{gcecG}c2 | \
{g}ec{gcecG}c2{g}eA{g}fd | \
{g}ec{gcecG}c2{g}Ac{gcecG}c2 |
{gde}dcBc{g}dA{g}fd[ | \
{g}ec{gcecG}c2{g}Ac{gcecG}c2 | \
{g}ec{gcecG}c2{g}eA{g}fg |
"flick"a3e{g}fe{g}dc | \
{gde}dcBc{g}dA{g}fd|] [ | \
{g}ec{gcecG}c2ac{gcecG}c2 |
{g}ec{gcecG}c2{g}eA{g}fd | \
{g}ec{gcecG}c2ac{gcecG}c2 | \
{gde}dcBc{g}dA{g}fd{g}ec{gcecG}c2ac{gcecG}c2 |
{g}ec{gcecG}c2{g}eA{g}fg | \
"flick"a3e{g}fe{g}dc | \
{gde}dcBc{g}dA{g}fd|]
